X:1
T:Launceston
%%score 1 2 3
L:1/8
M:3/4
K:G
V:1 treble nm="Soprano" snm="S."
V:2 treble-8 nm="Tenor" snm="T."
V:3 bass nm="Bass" snm="B."
V:1
 (G2 c2) B2 | (B2 e2) d2 | (c2 B2) A2 | B4 z2 | (B2 d2) c2 | (B>A G2) A2 | (B2 d2) B2 | A4 z2 | %8
 (B2 e2) d2 | ^c4 B2 | (A2 d2) ^c2 | d4 z2 | (B2 G2) B2 | (A2 d2) A2 | (A>G F2) E2 | D4 z2 | %16
 (D2 c2) B2 | (A2 e2) d2 | (d>c B2) A2 | G2 c2 c2 | c4 B2 | (A2 G2) F2 | G4 z2 |] %23
V:2
 g4 G2 | (G2 c2) B2 | (A2 G2) F2 | G4 z2 | (G2 B2) A2 | (G>F E2) D2 | (G2 B2) G2 | F4 z2 | %8
 (d2 g2) f2 | e4 d2 | (d>e f2) e2 | f4 z2 | (d3 e) d2 | (d2 f2) a2 | (f>e d2) ^c2 | d4 z2 | A4 G2 | %17
 F4 G2 | e4 f2 | g2 G2 G2 | A4 (G>d) | (c2 B2) A2 | G4 z2 |] %23
V:3
 (B,2 E2) D2 | (E,2 F,2) G,2 | (C2 D2) D,2 | G,4 z2 | G,4 D,2 | E,4 F,2 | G,4 G,,2 | D,4 z2 | %8
 G,4 ^G,2 | A,4 A,2 | A,4 A,,2 | D,4 z2 | (G,2 B,2) G,2 | (F,2 D,E,) (F,G,) | A,4 A,,2 | D,4 z2 | %16
 F,4 G,2 | C,4 B,,2 | C,4 D,2 | E,2 E2 E2 | F,4 G,2 | (C,2 D,2) D,2 | G,,4 z2 |] %23

